modules/framework7-icons/icons/compass.svg

<?xml version="1.0" encoding="UTF-8"?>
<svg width="50px" height="50px" viewBox="0 0 50 50" version="1.1" xmlns="http://www.w3.org/2000/svg" xmlns:xlink="http://www.w3.org/1999/xlink">
    <!-- Generator: Sketch 40.1 (33804) - http://www.bohemiancoding.com/sketch -->
    <title>compass</title>
    <desc>Created with Sketch.</desc>
    <defs></defs>
    <g id="Page-1" stroke="none" stroke-width="1" fill="none" fill-rule="evenodd">
        <g id="compass" fill="#000000">
            <path d="M48,25 C48,12.2974508 37.7025492,2 25,2 C12.2974508,2 2,12.2974508 2,25 C2,37.7025492 12.2974508,48 25,48 C37.7025492,48 48,37.7025492 48,25 Z M0,25 C0,11.1928813 11.1928813,0 25,0 C38.8071187,0 50,11.1928813 50,25 C50,38.8071187 38.8071187,50 25,50 C11.1928813,50 0,38.8071187 0,25 Z" id="Oval-12"></path>
            <polygon id="Triangle-7" transform="translate(32.545942, 18.056674) rotate(-315.000000) translate(-32.545942, -18.056674) " points="36.5459415 27.5566736 28.5459415 27.5566736 32.5459415 8.55667359"></polygon>
            <path d="M28.6760185,27.6068665 L23.0191643,21.9500122 L10.998349,39.6276817 L28.6760185,27.6068665 Z M26.3500977,27.4000244 L23.25,24.2999878 L16.6000977,34 L26.3500977,27.4000244 Z" id="Combined-Shape"></path>
        </g>
    </g>
</svg>

<svg width="50" height="50" viewBox="0 0 50 50" xmlns="http://www.w3.org/2000/svg"><g fill="#000" fill-rule="evenodd"><path d="M48 25C48 12.297 37.703 2 25 2S2 12.297 2 25s10.297 23 23 23 23-10.297 23-23zM0 25C0 11.193 11.193 0 25 0s25 11.193 25 25-11.193 25-25 25S0 38.807 0 25z"/><path d="M28.657 27.603L23 21.946l16.263-10.607z"/><path d="M28.676 27.607l-5.657-5.657L11 39.628l17.677-12.021zM26.35 27.4l-3.1-3.1L16.6 34l9.75-6.6z"/></g></svg>
